X:1
T:Ninas slängpolska
M:3/4
L:1/16
R:Slängpolska
C:Robert Boström
Z:Robert Boström 2009-06-08
K:Em
|:B4G4E4|B4 F2G2 E4|A3G A2B2 c2d2|B12|
e4 c4 A4|B4 F2G2 E4|F3E D2E2 F2G2|E12:|
|:BGEG BGEG BGEG|BFDF BFDF BFDF|BGEG BGEG BGEG|BFDF BFDF BFDF|
cGEG cGEG cGEG|BGDG BGDG BGDG|F3E D2E2 F2G2|E12:|

